X: 13
T:Snowy Path, The
M:9/8
L:1/8
Q:120
C:Mark Kelly
R:Slip-jig
K:D
"D"F2A B2F A3|"G"G2B d2e dBG|
"D"F2A B2F A2F|1 "A"E2D E2F GFE:|2 "A"E2D E2F GAB|:
"F#m"c3 c2e d2c|"G"B2G B2c d2e|
"Bm"f3 f2e d2B|"F#m"A2G F2G A2B|
c3 c2e d2c|"G"B2G B2c d2e|
"D"d2A B2F A2F|"A"E2D E2F GFE|
